packages/dnb-ui-lib/assets/icons/padlock_medium.svg

<svg width="24" height="24" viewBox="0 0 24 24" fill="none" xmlns="http://www.w3.org/2000/svg">
<path d="M12 15V18M17.25 9.75H18.75C19.5784 9.75 20.25 10.4216 20.25 11.25V21.75C20.25 22.5784 19.5784 23.25 18.75 23.25H5.25C4.42157 23.25 3.75 22.5784 3.75 21.75V11.25C3.75 10.4216 4.42157 9.75 5.25 9.75H6.75M17.25 9.75V6C17.25 4.60761 16.6969 3.27226 15.7123 2.28769C14.7277 1.30312 13.3924 0.75 12 0.75C10.6076 0.75 9.27226 1.30312 8.28769 2.28769C7.30312 3.27226 6.75 4.60761 6.75 6V9.75M17.25 9.75H6.75" stroke="black" stroke-width="1.5" stroke-linecap="round" stroke-linejoin="round"/>
</svg>

<svg width="24" height="24" viewBox="0 0 24 24" fill="none" xmlns="http://www.w3.org/2000/svg"><path d="M12 15v3m5.25-8.25h1.5a1.5 1.5 0 011.5 1.5v10.5a1.5 1.5 0 01-1.5 1.5H5.25a1.5 1.5 0 01-1.5-1.5v-10.5a1.5 1.5 0 011.5-1.5h1.5m10.5 0V6a5.25 5.25 0 10-10.5 0v3.75m10.5 0H6.75" stroke="#000" stroke-width="1.5" stroke-linecap="round" stroke-linejoin="round"/></svg>
